X:67
T:Reel 67
M:4/4
K:Gmaj
L:1/8
 (3def |:g2fd edBA|GABG ADD2|GFGA BABd| (3efg af gfed|g2fd edBA|GABG AGEF|GFGA BABd| (3efg af g2de|g2bg egdg| (3efg dg egaf| (3gfg gd egdg|egfa ged2|g2bg bgbg| (3gfg dg edBd| (3ggg df egdB|cBAG FGdf|
